!!!OTL: IN TRAUERN UND UNRUH
!!!ARE: Europa, Mitteleuropa, Deutschland, Franken, Koenigshofen im Grabfelde
!!!SCT: E0706
!!!YEM: Copyright 1995, estate of Helmut Schaffrath.
**kern
*ICvox
*Ivox
*M4/4
*k[b-]
*F:
{4c
=1
4f
4f
8f
8g
8a
8b-
=2
2.g}
{4c
=3
4g
4g
8g
8a
8b-
8cc
=4
2a
4r}
{8f
8a
=5
4.cc
8a
4.a
8f
=6
8e
8g
4b-
4r}
{4g
=7
4.b-
8g
4.g
8e
=8
8f
8a
4cc
4r}
{4c
=9
4f
4f
8f
8g
8a
8b-
=10
2.g}
{4b-
=11
4a
8b-
8g
4f
4e
=12
2f
4r}
==
!!!AGN: Liebes - Lied, Leid, Klage
!!!ONB: ESAC (Essen Associative Code) Database: ERK2
!!!AMT: simple quadruple
!!!AIN: vox
!!!EED: Helmut Schaffrath
!!!EEV: 1.0
*-
